X: 2580
T: Ballyogan
R: reel
M: 4/4
K: Bminor
"Bm"dBBA ~B2AB|"Bm#5(G/B)"dB ~B2 BAFA|"Bm6(E7/B)"dBBA ~B2 dB|1 "Bm7"1~A3B ADFA:|2 "Bm7"2~A3F "D/F#"GF"D"DF||
|:"Em"(DE)BA "D"~F2AF|"Em"(DE)BA "Bm"(dB)"D"AF|"Em"(DE)BA "D"~F2AF|~d3(e "Bm"d)B AF|
"Em"(DE)BA "D"~F2AF|"Em"(DE)BA "Bm"(dB)"D"AF|"Em"(DE)BA "D"~F2(3(AB)d|fd(e"Bm"f) dBAB||
dBBA ~B2AB|dB ~B2 BAFA|dBBA ~B2 dB|~A3B ADFA|
dB~B2 AB~B2|dB~B2 AB~B2|dB~B2 AB~B2|~A3F GFDF||
(DE)BA ~F2AF|(DE)BA dBAF|(DE)BA ~F2AF|~d3(e d)B AF|
E>dB>A F>dA>F|E>dB>A dBAF|(DE)BA ~F2 (3(AB)d|"*"fd(ef) dBAB||

